X:1
T:Title
%%score 1 { 2 | 3 }
L:1/8
Q:1/4=82
M:2/4
K:A
V:1 treble nm="Grand Piano, Soprano"
V:2 bass nm="Choir Pad, Joy to the Sons of Men"
V:3 bass 
V:1
 [CA]2 [DF][DA] | [CE][DF] [CE]2 | [CA]2 [DF][FA] | [EG][FA] [GB][EB] | [Ec]>[Ec] [DB][CA] | %5
w: By~Henry~Tucker * *|||||
 [EG][DF] [CE][CA] | [Ec][Ec] [DB][CA] | [EG][DF] [CE][EA] | [EG][EB] [EA][Ac] | %9
w: ||||
 [GB]>[Ac] [GB][EA] | [EG][EB] [EA][Ac] | [GB][Bd]/[Ac]/ [GB]E | AG AB | c3 [EB] | %14
w: |||||
 [Ac][GB] [Ac][Bd] | [ce]3 [ce] | [ce]2 [Ac]2 | [Fd]2 [EG]2 | [EA]4- | [EA]4 |] %20
w: ||||||
V:2
 A,2 A,A, | A,A, A,2 | A,2 A,A, | E,E, E,G, | A,>A, A,A, | A,A, A,A, | A,A, A,A, | A,A, A,A, | %8
 B,G, CA, | B,>A, B,C | B,G, CA, | E,E, E,E, | A,E, C,E, | A,3 G, | A,E, A,A, | A,3 A, | %16
 A,2[K:treble] A,2 | A,2 D2 | C4- | C4 |] %20
V:3
 A,,2 D,F, | z A,, A,,2 | A,,2 D,D, | z2 z E, | A,,2 z2 | D,D, A,,A,, | z4 | F,D, A,,C, | %8
 E,E, .A,2 | E,>E, E,A, | E,E, E,E, | z4 | z4 | A,,3 E, | z4 | z2 z A,, | z4 | D,2 E,2 | A,,4- | %19
 A,,4 |] %20

